icons/folder-sublime-open.svg

<svg xmlns="http://www.w3.org/2000/svg" viewBox="0 0 32 32">
  <path d="M28.96692,12H9.44152a2,2,0,0,0-1.89737,1.36754L4,24V10H28a2,2,0,0,0-2-2H15.1241a2,2,0,0,1-1.28038-.46357L12.5563,6.46357A2,2,0,0,0,11.27592,6H4A2,2,0,0,0,2,8V24a2,2,0,0,0,2,2H26l4.80523-11.21213A2,2,0,0,0,28.96692,12Z" style="fill: #616161"/>
  <path data-mit-no-recolor="true" d="M32,15.833V12.88705a.5.5,0,0,0-.65808-.47437l-11,3.66669A.50008.50008,0,0,0,20,16.55373V19.833a.5.5,0,0,0,.34192.47431L26,22.19332l-5.65808,1.88605A.50008.50008,0,0,0,20,24.55373V27.4996a.5.5,0,0,0,.65814.47436l11-3.66668A.5.5,0,0,0,32,23.833V20.55373a.5.5,0,0,0-.34186-.47436L26,18.19332l5.65814-1.886A.5.5,0,0,0,32,15.833Z" style="fill: #ffa726;fill-rule: evenodd"/>
</svg>

<svg xmlns="http://www.w3.org/2000/svg" viewBox="0 0 32 32"><path fill="#616161" d="M28.967 12H9.442a2 2 0 0 0-1.898 1.368L4 24V10h24a2 2 0 0 0-2-2H15.124a2 2 0 0 1-1.28-.464l-1.288-1.072A2 2 0 0 0 11.276 6H4a2 2 0 0 0-2 2v16a2 2 0 0 0 2 2h22l4.805-11.212A2 2 0 0 0 28.967 12Z"/><path fill="#ffa726" fill-rule="evenodd" d="M32 15.833v-2.946a.5.5 0 0 0-.658-.474l-11 3.666a.5.5 0 0 0-.342.475v3.279a.5.5 0 0 0 .342.474L26 22.193l-5.658 1.886a.5.5 0 0 0-.342.475V27.5a.5.5 0 0 0 .658.474l11-3.667a.5.5 0 0 0 .342-.474v-3.28a.5.5 0 0 0-.342-.474L26 18.193l5.658-1.886a.5.5 0 0 0 .342-.474Z" data-mit-no-recolor="true"/></svg>
